packages/ui-icons/svg/Line/pin.svg

<svg viewBox="0 0 1920 1920" version="1.1" xmlns="http://www.w3.org/2000/svg">
    <path d="M692.080941,851.621647 L1035.08329,1194.624 C1088.39153,1247.93224 1117.75624,1318.85929 1117.75624,1394.19106 C1117.75624,1469.63576 1088.39153,1540.56282 1035.08329,1593.87106 L1018.59388,1610.36047 L276.231529,868.111059 L292.720941,851.621647 C399.450353,744.779294 585.464471,744.779294 692.080941,851.621647 Z M1032.25976,464.233412 L1422.69741,854.671059 L1136.50447,1140.864 C1129.16329,1132.28047 1123.06447,1122.79341 1114.93271,1114.77459 L771.930353,771.772235 C763.911529,763.640471 754.424471,757.880471 745.840941,750.652235 L1032.25976,464.233412 Z M1135.03624,159.744 L1727.18682,751.781647 L1643.27153,835.696941 C1621.248,857.720471 1585.44565,857.720471 1563.42212,835.696941 L1542.97976,815.254588 C1542.75388,815.028706 1542.75388,814.802824 1542.528,814.576941 C1542.30212,814.464 1542.07624,814.464 1541.96329,814.238118 L1072.80565,345.080471 C1072.57976,344.854588 1072.46682,344.515765 1072.24094,344.289882 C1072.01506,344.064 1071.67624,343.951059 1071.45035,343.838118 L1051.12094,323.508706 C1029.09741,301.485176 1029.09741,265.569882 1051.12094,243.546353 L1135.03624,159.744 Z M1135.03624,0.0451764706 L971.271529,163.696941 C911.977412,222.991059 908.928,314.473412 956.250353,380.544 L658.876235,677.918118 C654.810353,681.871059 652.438588,686.727529 649.840941,691.471059 C505.276235,631.386353 326.942118,657.814588 212.871529,771.772235 L116.532706,868.111059 L527.638588,1279.21694 L16.5797647,1790.27576 C-5.55670588,1812.29929 -5.55670588,1848.10165 16.5797647,1870.12518 C27.5350588,1881.19341 41.9915294,1886.72753 56.448,1886.72753 C70.9044706,1886.72753 85.3609412,1881.19341 96.4291765,1870.12518 L607.488,1359.06635 L1018.59388,1770.05929 L1114.93271,1673.72047 C1189.58682,1599.17929 1230.69741,1499.904 1230.69741,1394.19106 C1230.69741,1339.07576 1218.95153,1285.88047 1197.60565,1236.864 C1200.20329,1234.944 1203.25271,1233.81459 1205.62447,1231.44282 L1506.38682,930.680471 C1535.75153,951.574588 1568.84329,965.127529 1603.29035,965.127529 C1646.65976,965.127529 1690.14212,948.525176 1723.12094,915.546353 L1886.88565,751.781647 L1135.03624,0.0451764706 Z" stroke="none" stroke-width="1" fill-rule="evenodd"/>
</svg>

<svg viewBox="0 0 1920 1920" version="1.1" xmlns="http://www.w3.org/2000/svg">
    <path d="M1643.272 835.697c-22.024 22.023-57.826 22.023-79.85 0l-20.442-20.442c-.226-.226-.226-.452-.452-.678-.226-.113-.452-.113-.565-.339L1072.806 345.08c-.226-.225-.34-.564-.565-.79-.226-.226-.565-.339-.79-.452l-20.33-20.33c-22.024-22.023-22.024-57.938 0-79.962l83.915-83.802 592.15 592.038-83.914 83.915zm-506.768 305.167c-7.34-8.584-13.44-18.07-21.571-26.09L771.93 771.773c-8.018-8.132-17.506-13.892-26.09-21.12l286.42-286.419 390.437 390.438-286.193 286.193zm-101.42 453.007l-16.49 16.49-742.362-742.25 16.489-16.49c106.73-106.842 292.743-106.842 399.36 0l343.002 343.003c53.309 53.308 82.673 124.235 82.673 199.567 0 75.445-29.364 146.372-82.673 199.68zM1135.035.045L971.272 163.697c-59.295 59.294-62.344 150.776-15.022 216.847L658.876 677.918c-4.066 3.953-6.437 8.81-9.035 13.553-144.565-60.085-322.899-33.656-436.97 80.301l-96.338 96.34 411.106 411.105-511.06 511.059c-22.136 22.023-22.136 57.826 0 79.85 10.956 11.067 25.413 16.602 39.869 16.602s28.913-5.535 39.981-16.603l511.059-511.059 411.106 410.993 96.339-96.339c74.654-74.54 115.764-173.816 115.764-279.529 0-55.115-11.745-108.31-33.091-157.327 2.597-1.92 5.647-3.05 8.018-5.421l300.763-300.763c29.365 20.895 62.456 34.448 96.903 34.448 43.37 0 86.852-16.603 119.83-49.582l163.766-163.764L1135.036.045z" stroke="none" stroke-width="1" fill-rule="evenodd"/>
</svg>
